X:1
T:Puritan, LM
T:Puritan, LM
T:Henry Morton Dunham, 1905
T:Public Domain Courtesy of the Cyber Hymnal™
C:Henry Morton Dunham, 1905
Z:Public Domain
Z:Courtesy of the Cyber Hymnal™
%%score ( 1 2 ) ( 3 4 )
L:1/8
Q:1/4=112
M:4/4
K:C
V:1 treble 
V:2 treble 
V:3 bass 
V:4 bass 
V:1
 [Gc]2 | [Gc]2 [^GB]2 [EA]2 (BA) | [DG]2 [DF]2 [CE]2 ([B,D]C) | (FE) (AG) [C^F]2 G2 | %4
 B2 z [B,G]2 G2 x2 | G2 G2 [_EA]2 [GB]2 | (cB) (A=G) [EA]2 A2 | A2 A2 [FB]2 [Ec]2 | %8
 e2 z !fermata![Ec]2 x |] %9
V:2
 x2 | x6 _E2 | x8 | C2 C2 x (DE) x | D3 (A2 C) x G2 | G2 G2 x4 | ^G2 E2 x A2 x | A2 A2 x4 | %8
 G3 (d2 F) |] %9
V:3
 [C,E]2 | [C,E]2 [E,D]2 [A,C]2 [^F,C]2 | (CB,) (A,B,) [C,G,]2 (F,E,) | A,G, F,E, A,2 G,2 | %4
 [D,G,]2 [D,^F,]2 [G,,G,]2 G,2 x | G,2 G,2 [^F,C]2 [=F,D]2 | [E,D]2 (CB,) [A,C]2 A,2 | %7
 A,2 A,2 [^G,D]2 [A,C]2 | (CB,) (A,B,) !fermata![C,C]2 |] %9
V:4
 x2 | x8 | G,2 G,,2 x C,2 x | C,2 C,2 (D,C,) (B,,C,) | x6 G,2 x | G,2 G,2 x4 | x2 E,2 x A,2 x | %7
 A,2 A,2 x4 | G,2 G,2 x2 |] %9

